X: 1262
T: Kilecrankie
%R: reel
B: Niel Gow & Sons "A Collection of Strathspey Reels, etc." v.1 p.26 #2
Z: 2022 John Chambers <jc:trillian.mit.edu>
M: 2/4
L: 1/16
K: Dmix
% - - - - - - - - - -
V: 1 staves=2
de |\
f2f2 {g}f2ed | g2g2 {a}g2fe | f2f2 {g}f2ed | f2a2- a2de ||\
f2f2 {g}f2ed | g2g2 {a}g2fe | (fga)f Te2d2 | B2d2-d2 :|
|: fg |\
a2A2- A2Bc | dcBA G2fg | a2A2 a2A2 | f2a2- a2fg ||\
a2A2- A2Bc | dcBA G2g2 | (fga).f Te3d | B2d2d2 :|
% - - - - - - - - - -
% Voice 2 preserves the staff layout in the book.
V: 2 clef=bass middle=d
z2 | d4 d4 | A4 A4 | d4 d4 | d4 f2a2 || d4 d4 | A4 ^c4 | d4 A4 | d4 d2 :||: z2 |
d4 d4 | g4 g4 | d4 a4 | d'4 d4 || d4 d4 | g4 b2g2 | a4 A4 | d4 d2 :|


